X:1
T:Title
%%score 1 2
L:1/8
Q:1/4=115
M:4/4
K:Ab
V:1 treble nm="Grand Piano, Soprano"
V:2 bass nm="Choir Pad, Bass"
V:1
 [Ec]2 [=D_c]2 [E=c]2 [CA]2- | [CA][CE] [DF]2 [EG]2 [FA]2- | [FA][=Ed] [_Ec]2 [CA]4 | %3
w: By~Herman~L.~Stephens * * *|||
 [EA]2 [DB]2 [DE]2 [Cc]2- | [Cc][Ec] [=DB]2 [DA]2 [DG]2 | [=DF]2 [_DB]6 | %6
w: |||
 [Ec]2 [=D_c]2 [E=c]2 [CE]2- | [CE][CE] [EA]2 [EA]2 [EB]2- | [EB][Ec] [_Ge]2 [Fd]4 | %9
w: |||
 [FB]2 [EA]2 [EG]2 [Ec]2- | [Ec][=DA] [_DB]2 [CE]2 [Ec]2- | [Ec][DB] [CA]6 | z2 [Ec]4 [FB][DA]- | %13
w: ||||
 [DA]2 [FA][DF] [FA]F [EA]2 | [EB]2 [Ec]2 [CE]4 | [Ec]2 [Fd]2 [Ec]2 [DF]2 | %16
w: |||
 [FA]2 [Ec]2 [EB]2 [FA]2 | [=DF]2 [EB]6 | [Ed]2 [Ec]2 [DB]2 [CA]2- | [CA][CA] [EG]2 [EA]2 [EB]2 | %20
w: ||||
 [Ec]2 [DF]6 | [_CF]2 [=CE]2 [CA]2 [Ec][CA]- | [CA]2 [DB]2 [CE]2 [Ec]2- | [Ec][DB] [CA]6- | %24
w: ||||
 [CA]2 z2 z4 |] %25
w: |
V:2
 [A,,A,]2 [A,,A,]2 [A,,A,]2 [A,,E,]2- | [A,,E,][A,,A,] [D,A,]2 [E,G,]2 [D,F,]2- | %2
 [D,F,][D,A,] [A,,A,]2 [A,,E,]4 | [C,A,]2 [E,G,]2 [E,G,]2 [A,,A,]2- | %4
 [A,,A,][A,,A,] [B,,F,]2 [B,,F,]2 [B,,B,]2 | [F,A,]2 [E,G,]6 | %6
 [A,,A,]2 [A,,A,]2 [A,,A,]2 [A,,A,]2- | [A,,A,][A,,A,] [C,A,]2 [C,A,]2 [E,G,]2- | %8
 [E,G,]A, [D,A,]2 [D,A,]4 | [D,D]2 [E,C]2 [E,B,]2 [E,A,]2- | %10
 [E,A,][F,A,] [E,G,]2 [E,A,]2 [E,G,]2- | [E,G,][E,G,] [A,,A,]6 | z2 [A,,A,]4 [D,F,][D,F,]- | %13
 [D,F,]2 [D,A,][D,A,] [D,A,][D,A,] [C,A,]2 | [E,G,]2 A,2 [A,,A,]4 | %15
 [A,,A,]2 [A,,A,]2 [A,,A,]2 [D,A,]2 | [D,A,]2 A,2 [G,B,]2 [F,C]2 | [F,A,]2 [E,G,]6 | %18
 [E,B,]2 A,2 [E,G,]2 [F,A,]2- | [F,A,][F,A,] [E,B,]2 [C,A,]2 [B,,G,]2 | [A,,A,]2 [D,A,]6 | %21
 [=D,A,]2 [_D,A,]2 [E,A,]2 [E,A,][F,A,]- | [F,A,]2 [E,G,]2 [E,A,]2 [E,G,]2- | %23
 [E,G,][E,G,] [A,,A,]6- | [A,,A,]2 z2 z4 |] %25

